X:72
T:Orange in Bloom
O:Sherborne, England
M:3/4
L:1/4
K:G
P:A
E G E|D G A|B d B|A2 B/2A/2|G E E|D G A|B G G|G3 :|
P:B
B>A B/2c/2|d2 B|A G A|B c d|e d B|A G A|B A G|E2 D|
E G E|D G A|B d B|A2 B/2A/2|G E E|D G A|B G G|G3 ||


